X:192
T:Glasses sparkle on the Board,The. CJF.192
R:Air
S:C.J.Fox MS, 1829/33, Beverley,E.Yorks.
N:”C J Fox” is in the stave after the tune. The grace note
N:run two bars from the end is written over a Quaver rest in
N:the MS. The first four notes in bar 6 are semiquvers in
N:the MS (e/d/)(c/B/). I have inserted the bar line just
N:before the “cresc” marking. In the bar marked “p”, the
N:beamed notes were quavers in the MS (ed). – PJH
B:Kidson Coll.Mitchell Lib.M1805
O:England
A:East Yorkshire
Z:vmp.P J Headford 2000 & 2008
M:C
L:1/8
Q:1/4=100
K:D
” Bold f”A2|d2A2f3e|{e}d2cBA2dc|B2d2(ag)(fe)|!
d3(e/d/)c2A2|f2(ed)e2A2|”6″(ed)(cB)c2ac|B3f edcB|A6|!
a2|” cres”A3B cdef|g2G2F2zA|B2d2(ag)(fe)|d3(e/d/)c2z”p”A|
d3cB2cd|e3dc2de|f3ed2ef|g2f2He2A2|” f”.d2.c2.B2.A2|!
((3GAG) ((3FGF)E2B2|e2d2c2B2|((3ABA) ((3GAG)F2A2|\
a3gf2e2|!
d3c (dHb) ({a/g/f/e/}{d/c/B/A/)} F|\
(GF).G.E”tr”A3A|D6|]

